X: 58
T:John D McGurk's
R:reel
C:Jackie Daly
D:First Month of Summer
Z:transcribed by Alf 
Z:also gets played as a jig on the album
M:4/4
K:D
e|:f2de faaf|gece Aece|d2Ad eaaf|gecd edd2:|
K:A
|cee/e/e aece|dBGB EBGB|cee/e/e aece|dBGA BAA2|
cee/e/e aece|dBGB EBGB|ABce defa|gabg a2=g2|]
